!!!!SEGMENT: pl-kk--kk-i-40--001-004_anonim--missa-sine-nomine-agnus-dei.krn
!!!cenid: 16xx:1280
!!!COM: Anonim
!!!COM-rismID: pe30004985
!!!CDT:
!!!CNT:
!!!OPR: Missa sine nomine
!!!OTL: Agnus Dei
!!!OMV: 004
!!!PDT:
!!!AGN: Sacred; Mass
!!!SMS-siglum: PL-Kk
!!!SMS-shelfmark: Kk.I.40
!!!SMS-shelfwork: 001-004 M
!!!SMS-variant:
!!!SMS-altvar:
!!!NIFC-rismSourceID: 1001154486
!!!NIFC-islandoraID: pl-kk:2717
!!!URL-pdf-islandora: https://repozytorium.nifc.pl/islandora/object/pl-kk%3A2717/datastream/PDF/view
!!!URL-scan: https://polish.musicsources.pl/pl/lokalizacje/galeria/rekopisy/6010 @EN{Scan on Polish Music Sources Website} @PL{Skany w portalu Dziedzictwo Muzyki Polskiej w otwartym dostępie}
!!!ONB-nifc: UWAGA: części Mszy: 1. Kyrie, 2. Et in terra, 3. Sanctus, 4. Agnus Dei. Skan 0003-0004
!!!AIN: 1 empty
!!!key:
**kern	**text
*Iempty	*
*I"Baſso Ripieno.	*
*clefF3	*
*k[b-]	*
*g:	*
*M2/1	*
*met(C|)	*
=1-	=1-
!LO:TX:a:t=P:problem=w źródle znaki przykluczowe B- BB-, zapisane jeden nad drugim	!
!LO:TX:t=P:problem=kreska pseudotaktowa	!
1r	.
0G	A-
=2-	=2-
!LO:TX:t=P:problem=kreska pseudotaktowa	!
1A	-gn(us)
=3-	=3-
1.B-	De-
*2\right	*
!LO:TX:t=P:problem=kreska pseudotaktowa	!
2A\	.
=4-	=4-
2G\	.
2F\	.
2G\	.
2B-\	.
=5-	=5-
!LO:TX:t=P:problem=kreska pseudotaktowa	!
1A	.
2D,</	-i
1d\	A-
=6-	=6-
2c\	-gn(us)
2.B-\	De-
4A\	.
=7-	=7-
1G	.
1C	.
=8-	=8-
*lig	*
1F	.
1G	.
*Xlig	*
=9-	=9-
!LO:TX:t=P:problem=kreska pseudotaktowa	!
1F	-i
!LO:LB:g=original	!
1r	.
=10-	=10-
0G	A-
=11-	=11-
!LO:TX:t=P:problem=kreska pseudotaktowa	!
1A	-gn(us)
1.B-	De-
=12-	=12-
!LO:TX:t=P:problem=kreska pseudotaktowa	!
2A\	.
2G\	.
2F\	.
=13-	=13-
!LO:TX:t=P:problem=kreska pseudotaktowa	!
1G	.
1C	.
=14-	=14-
!LO:TX:t=P:problem=kreska pseudotaktowa	!
1F,<	-i
1G	A-
=15-	=15-
!LO:TX:t=P:problem=kreska pseudotaktowa	!
1F	-gn(us)
2.BB-/	De-
!LO:TX:t=P:problem=kreska pseudotaktowa	!
4C/	.
=16-	=16-
4D/	.
4E/	.
2F\	.
0G	.
=17-	=17-
!LO:TX:t=P:problem=kreska pseudotaktowa	!
1D	.
=18-	=18-
2.G\	.
4F/	.
2E-X/	.
2D/	.
=19-	=19-
1C	.
!LO:TX:t=P:problem=kreska pseudotaktowa	!
1BB-	-i.
=20-	=20-
00r	.
=21-	=21-
.	.
=22-	=22-
!LO:TX:t=P:problem=kreska pseudotaktowa	!
0r	.
=23-	=23-
1F	Qui
1G	tol-
=24-	=24-
2A,<\	-lis
!LO:TX:t=P:problem=kreska pseudotaktowa	!
2A\	pe(c-
1B-	-ca)-
=25-	=25-
!LO:TX:t=P:problem=kreska pseudotaktowa	!
1A,>	-ta
1G	mun-
=26-	=26-
2A,>\	-di
2F\	pe(c-
2.B-\	-ca)-
!LO:TX:t=P:problem=kreska pseudotaktowa	!
4A\	-ta
=27-	=27-
1G	mun-
2F\	.
2A\	.
=28-	=28-
*lig	*
1G	.
1F	.
*Xlig	*
=29-	=29-
!LO:TX:t=P:problem=kreska pseudotaktowa	!
1BB-	-di.
!LO:LB:g=original	!
2rD	.
2C/	p(e)c-
=30-	=30-
2D/	-(ca)-
2BB-/	-ta
1F	mun-
=31-	=31-
!LO:TX:t=P:problem=kreska pseudotaktowa	!
1BB-	di
00r	.
=32-	=32-
.	.
=33-	=33-
!LO:TX:t=P:problem=kreska pseudotaktowa	!
0r	.
=34-	=34-
1D	mi-
=35-	=35-
1F	-se-
1G	-re-
=36-	=36-
!LO:TX:t=P:problem=kreska pseudotaktowa	!
0F	-re
=37-	=37-
1.B-	no-
2A\	.
=38-	=38-
2.G\	.
4F/	.
1Eny	-bis
=39-	=39-
!LO:TX:t=P:problem=kreska pseudotaktowa	!
1D,<	.
!LO:N:vis=0	!
1r	.
=40-	=40-
1ryy	.
!LO:TX:t=P:problem=kreska pseudotaktowa	!
1r	.
=41-	=41-
1D	mi-
2F/	-ſe-
1F/	-re-
=42-	=42-
2D/	-re
2.A\	no-
4G\	.
=43-	=43-
2F/	.
2D/	-bis
!LO:TX:t=P:problem=kreska pseudotaktowa	!
1A,<	.
=44-	=44-
*	*ij
1.D	mi-
2C#X/	-ſe-
=45-	=45-
2D/	-re-
2D/	-re
1A	no-
=46-	=46-
!LO:TX:b:i:t=repetat(ur)	!
!LO:TX:t=P:problem=podwójna kreska pseudotaktowa	!
0D;>	-bis
*	*Xij
=47||-	=47||-
*clefF3	*
*k[b-]	*
*M2/1	*
*met(C|)	*
!LO:TX:a:t=P:problem=w źródle znaki przykluczowe B- BB-, zapisane jeden nad drugim	!
!LO:TX:t=P:problem=kreska pseudotaktowa	!
00r	.
=48-	=48-
.	.
=49-	=49-
1.d	A-
2d\	-gn(us)
=50-	=50-
2.G\	De-
4A\	.
4B-\	.
4c\	.
!LO:TX:t=P:problem=kreska pseudotaktowa	!
2d\	.
=51-	=51-
2c\	.
2B-\	.
0A	.
=52-	=52-
0G	-i
!LO:LB:g=original	!
=53-	=53-
2r	.
2G\	A-
=54-	=54-
2F\	-gn(us)
2A\	De-
1G	.
=55-	=55-
2.F\	.
!LO:TX:t=P:problem=kreska pseudotaktowa	!
4G\	.
2A\	.
2B-\	.
=56-	=56-
0A	.
=57-	=57-
2.D/	.
!LO:TX:t=P:problem=kreska pseudotaktowa	!
4E/	.
2F/	.
2C/	.
=58-	=58-
1G	.
2F/	.
2E/	.
=59-	=59-
0D	.
=60-	=60-
!LO:TX:t=P:problem=kreska pseudotaktowa	!
1G,<	-i.
1r	.
=61-	=61-
2r	.
2G\	Qui
1A	tol-
=62-	=62-
!LO:TX:t=P:problem=kreska pseudotaktowa	!
1G	-lis
1C	p(e)c-
=63-	=63-
2F\	-(ca)-
2G\	-ta
2C/	mun-
!LO:TX:t=P:problem=kreska pseudotaktowa	!
2D,</	-di
=64-	=64-
2G\	p(e)c-
2A\	-(ca)-
2D,</	-ta
1d\	mun-
=65-	=65-
2c\	.
*lig	*
1B-	.
=66-	=66-
1A	.
*Xlig	*
!LO:TX:t=P:problem=kreska pseudotaktowa	!
1D,<	-di
=67-	=67-
2r	.
2A\	qui
2.B-\	tol-
4A\	.
=68-	=68-
2.G\	.
4F/	.
1E-X	-lis
=69-	=69-
!LO:TX:t=P:problem=kreska pseudotaktowa	!
1D	.
2rD	.
2D/	p(e)c-
=70-	=70-
2G\	-(ca)-
!LO:TX:t=P:problem=kreska pseudotaktowa	!
2D/	-ta
!LO:LB:g=original	!
1G	mun-
=71-	=71-
!LO:TX:t=P:problem=kreska pseudotaktowa	!
0F,<	-di
=72-	=72-
1BB-	Do-
1D	-na
=73-	=73-
2C/	no-
!LO:TX:t=P:problem=kreska pseudotaktowa	!
2E/ny	-bis
1D	pa-
=74-	=74-
2C,</	-cem
2.G\	pa-
4F/	.
!LO:TX:t=P:problem=kreska pseudotaktowa	!
2G\	.
=75-	=75-
1D,<	-cem
!LO:TX:t=P:problem=kreska pseudotaktowa	!
!LO:TX:a:t=I.	!
1r	.
=76-	=76-
*	*ij
1D	Do-
1G	-na
=77-	=77-
2F/	no-
2C/	-bis
1C	pa-
=78-	=78-
!LO:TX:t=P:problem=kreska pseudotaktowa	!
1G,<	-cem
*	*Xij
2r	.
2A\	Do-
=79-	=79-
2c\	-na
!LO:TX:t=P:problem=kreska pseudotaktowa	!
2d\	no-
2A\	-bis
2.c\	pa-
=80-	=80-
8B-\L	.
8A\J	.
2B-\	.
!LO:TX:t=P:problem=kreska pseudotaktowa	!
1c	.
=81-	=81-
2G\	.
2B-\	.
1A	.
=82-	=82-
!LO:TX:t=P:problem=kreska pseudotaktowa	!
0D	-cem
=83-	=83-
*lig	*
1G	Do-
1F	.
*Xlig	*
=84-	=84-
2C/	-na
2E/	.
!LO:TX:t=P:problem=kreska pseudotaktowa	!
1D	no-
=85-	=85-
1.G	.
2G\	-bis
=86-	=86-
1C	pa-
1G	.
=87-	=87-
0C	-cem.
=88-	=88-
!LO:TX:t=P:problem=podwójna kreska pseudotaktowa	!
0G;>	.
=||	=||
*-	*-
!!!RDF**kern: > = above
!!!RDF**kern: < = below
!!!EED: Antoni Szymański
!!!EEV: 2021-07-31
!!!ENC: Berenika Jozajtis
!!!END: 2021-07-04
!!!YEC: Copyright 2022 Narodowy Instytut Fryderyka Chopina (https://polishscores.org)
!!!YEM: Licence CC BY 4.0 (https://creativecommons.org/licenses/by/4.0)
